packages/merlin-www-assets/imports/brides/icons/figure-email.svg

<svg viewBox="0 0 16 16" xmlns="http://www.w3.org/2000/svg"><path d="m15.1588427 4.63447237c.2018754-.18841699.5182698-.17750683.7066868.0243685.188417.20187534.1775068.51826978-.0243685.70668676-2.5860615 2.4136574-5.2020936 3.63447237-7.84115914 3.63447237-2.63906555 0-5.25509763-1.22081497-7.84115913-3.63447237-.20187534-.18841698-.21278549-.50481142-.02436851-.70668676.18841699-.20187533.50481142-.21278549.70668676-.0243685 2.41393851 2.25300927 4.79790643 3.36552763 7.15884088 3.36552763 2.36093444 0 4.74490234-1.11251836 7.15884084-3.36552763zm-14.15884084-1.63447237v10h14.00000004v-10zm14.99999814-1v12h-16v-12z"/></svg>

<svg xmlns="http://www.w3.org/2000/svg" viewBox="0 0 16 16"><title>email</title>
  <path d="M15.1588427,4.63447237 C15.3607181,4.44605538 15.6771125,4.45696554 15.8655295,4.65884087 C16.0539465,4.86071621 16.0430363,5.17711065 15.841161,5.36552763 C13.2550995,7.77918503 10.6390674,9 8.00000186,9 C5.36093631,9 2.74490423,7.77918503 0.158842733,5.36552763 C-0.0430326051,5.17711065 -0.0539427582,4.86071621 0.134474224,4.65884087 C0.322891206,4.45696554 0.639285645,4.44605538 0.841160983,4.63447237 C3.25509949,6.88748164 5.63906741,8 8.00000186,8 C10.3609363,8 12.7449042,6.88748164 15.1588427,4.63447237 Z M1.00000186,3 L1.00000186,13 L15.0000019,13 L15.0000019,3 L1.00000186,3 Z M16,2 L16,14 L0,14 L0,2 L16,2 Z"/>
</svg>
